X: 51
T: No_7_Song_of_the_Bear_Dance_(a).krn
N: Derived from No_7_Song_of_the_Bear_Dance_(a).krn
%%abc-version 2.0
%%abcx-abcm2ps-target-version 5.9.1 (29 Sep 2008)
%%abc-creator hum2abc beta
%%abcx-conversion-date 2019/03/15 08:35:01
%%humdrum-veritas 1491793237
%%humdrum-veritas-data 1684742673
%%linebreak <none>
%%barnumbers 0
L: 1/16
M: 3/4
K: E clef=bass
[K:clef=bass][M:3/4]G,2G,G, A,2G,G, G,2 z2 | 
[M:2/4]G,2F,2 G,3/G,/G,2 | 
A,2G,G, G,2 z D ]|:  
C4C2B,B, | 
[M:3/4]G,2G,G, F,2F,2 z3 D | 
[M:2/4]C4C2B,B, | 
[M:3/4]G,2G,G, F,2F,2z4 | 
[M:2/4]G,2F,2 G,3/G,/G,2 | 
A,2G,G, G,2 z2 ||  
G,2F,2 G,G,G,2 | 
A,2G,G, G,2 z D :|]  



